icons/youtube.svg

<svg fill="none" height="37" viewBox="0 0 37 37" width="37" xmlns="http://www.w3.org/2000/svg"><path d="m32.8703 25.5404c-.3013 1.5821-1.5821 2.7875-3.1642 3.0135-2.4861.3767-6.6297.8287-11.3006.8287-4.5956 0-8.73923-.452-11.30072-.8287-1.58209-.226-2.86284-1.4314-3.16419-3.0135-.30135-1.7328-.6027-4.2943-.6027-7.4585s.30135-5.7256.6027-7.4584c.30135-1.58211 1.5821-2.78752 3.16419-3.01353 2.48615-.37669 6.62972-.82872 11.30072-.82872 4.6709 0 8.7391.45203 11.3006.82872 1.5821.22601 2.8629 1.43142 3.1642 3.01353.3014 1.7328.6781 4.2942.6781 7.4584-.0754 3.1642-.3767 5.7257-.6781 7.4585z" fill="#ff3d00"/><path d="m15.3926 23.3539v-10.5473l9.0405 5.2737z" fill="#fff"/></svg>

<svg width="37" height="37" viewBox="0 0 37 37" fill="none" xmlns="http://www.w3.org/2000/svg">
<path d="M32.8703 25.5404C32.569 27.1225 31.2882 28.3279 29.7061 28.5539C27.22 28.9306 23.0764 29.3826 18.4055 29.3826C13.8099 29.3826 9.66627 28.9306 7.10478 28.5539C5.52269 28.3279 4.24194 27.1225 3.94059 25.5404C3.63924 23.8076 3.33789 21.2461 3.33789 18.0819C3.33789 14.9177 3.63924 12.3563 3.94059 10.6235C4.24194 9.04139 5.52269 7.83598 7.10478 7.60997C9.59093 7.23328 13.7345 6.78125 18.4055 6.78125C23.0764 6.78125 27.1446 7.23328 29.7061 7.60997C31.2882 7.83598 32.569 9.04139 32.8703 10.6235C33.1717 12.3563 33.5484 14.9177 33.5484 18.0819C33.473 21.2461 33.1717 23.8076 32.8703 25.5404Z" fill="#FF3D00"/>
<path d="M15.3926 23.3539V12.8066L24.4331 18.0803L15.3926 23.3539Z" fill="white"/>
</svg>
